X: 38718
T: Streams Of Poulaphouca
R: reel
M: 4/4
K: Dmajor
dfed AFDF|AFdF ABAF|dfed AFDF|GE=cE G2A/B/c|
d2 fd AFDF|AFdF A2 A/B/c|dAFD ABdB|AFEG FD D2||
AFDF AFdF|G/F/E =cEGE c2|AFdF AFDF|G/F/E =cE D2 E/F/G|
AF F2 dFeF|GE E2 =cEdE|AD E/F/G ABAF|GE=cE D4||

